libs/icons/src/svg/restore.svg

<svg width="16" height="16" viewBox="0 0 16 16" fill="none" xmlns="http://www.w3.org/2000/svg">
<g clip-path="url(#clip0_3_3789)">
<path d="M2.44027 3.21559C3.77643 1.64064 5.7809 0.666672 7.99996 0.666672C12.0348 0.666672 15.3333 3.96515 15.3333 8C15.3333 12.0349 12.0348 15.3333 7.99996 15.3333C3.9651 15.3333 0.666626 12.0349 0.666626 8C0.666626 7.63181 0.965103 7.33334 1.33329 7.33334C1.70148 7.33334 1.99996 7.63181 1.99996 8C1.99996 11.2985 4.70148 14 7.99996 14C11.2984 14 14 11.2985 14 8C14 4.70153 11.2984 2.00001 7.99996 2.00001C6.1721 2.00001 4.53347 2.80269 3.44735 4.08966L5.24188 3.78536C5.60489 3.7238 5.94907 3.96817 6.01063 4.33118C6.07218 4.69419 5.82781 5.03837 5.4648 5.09992L2.18736 5.65569C2.05246 5.68064 1.90869 5.66432 1.77578 5.59988C1.5703 5.50026 1.43904 5.30902 1.4073 5.0991L0.85206 1.82477C0.790503 1.46176 1.03488 1.11758 1.39788 1.05602C1.76089 0.994467 2.10507 1.23884 2.16663 1.60185L2.44027 3.21559Z" fill="#202327"/>
<path d="M7.99996 4C8.36815 4 8.66663 4.29848 8.66663 4.66667V7.72386L11.138 10.1953C11.3984 10.4556 11.3984 10.8777 11.138 11.1381C10.8777 11.3984 10.4556 11.3984 10.1952 11.1381L7.52855 8.47141C7.40353 8.34639 7.33329 8.17682 7.33329 8V4.66667C7.33329 4.29848 7.63177 4 7.99996 4Z" fill="#202327"/>
</g>
<defs>
<clipPath id="clip0_3_3789">
<rect width="16" height="16" fill="white"/>
</clipPath>
</defs>
</svg>

<svg xmlns="http://www.w3.org/2000/svg" viewBox="0 0 16 16" class="sageicon"><path d="M2.44 3.216A7.264 7.264 0 0 1 8 .666c4.035 0 7.333 3.3 7.333 7.334 0 4.035-3.298 7.333-7.333 7.333S.667 12.035.667 8A.667.667 0 0 1 2 8c0 3.299 2.701 6 6 6 3.298 0 6-2.701 6-6 0-3.298-2.702-6-6-6a5.93 5.93 0 0 0-4.553 2.09l1.795-.305A.667.667 0 1 1 5.465 5.1l-3.278.556a.664.664 0 0 1-.78-.557L.852 1.825a.667.667 0 0 1 1.315-.223l.273 1.614Z"/><path d="M8 4c.368 0 .667.298.667.667v3.057l2.471 2.471a.667.667 0 1 1-.943.943L7.53 8.471A.667.667 0 0 1 7.333 8V4.667C7.333 4.298 7.632 4 8 4Z"/></svg>
